assets/images/icon-docs.svg

<?xml version="1.0" encoding="UTF-8" standalone="no"?>
<svg width="39px" height="66px" viewBox="0 0 39 66" version="1.1" xmlns="http://www.w3.org/2000/svg" xmlns:xlink="http://www.w3.org/1999/xlink" xmlns:sketch="http://www.bohemiancoding.com/sketch/ns">
    <!-- Generator: Sketch 3.5.1 (25234) - http://www.bohemiancoding.com/sketch -->
    <title>Untitled 2</title>
    <desc>Created with Sketch.</desc>
    <defs></defs>
    <g id="Page-1" stroke="none" stroke-width="1" fill="none" fill-rule="evenodd" sketch:type="MSPage">
        <g id="icon-docs" sketch:type="MSLayerGroup">
            <path d="M5.125,42.5 L15.375,42.5 L15.375,45.0625 L5.125,45.0625 L5.125,42.5 Z M5.125,47.625 L15.375,47.625 L15.375,50.1875 L5.125,50.1875 L5.125,47.625 Z M5.125,52.75 L15.375,52.75 L15.375,55.3125 L5.125,55.3125 L5.125,52.75 Z M33.3125,45.0625 L23.0625,45.0625 L23.0625,42.5 L33.3125,42.5 L33.3125,45.0625 Z M33.3125,50.1875 L23.0625,50.1875 L23.0625,47.625 L33.3125,47.625 L33.3125,50.1875 Z M33.3125,55.3125 L23.0625,55.3125 L23.0625,52.75 L33.3125,52.75 L33.3125,55.3125 Z M38.4375,37.375 L38.4375,60.4375 C38.4108072,61.1582067 38.157229,61.7587867 37.6767578,62.2392578 C37.1962867,62.719729 36.5957067,62.9733072 35.875,63 L21.78125,63 L19.21875,65.5625 L16.65625,63 L2.5625,63 C1.84179327,62.9733072 1.24121334,62.719729 0.760742188,62.2392578 C0.280271035,61.7587867 0.0266928418,61.1582067 0,60.4375 L0,37.375 C0.0266928418,36.6542933 0.280271035,36.0537133 0.760742188,35.5732422 C1.24121334,35.092771 1.84179327,34.8391928 2.5625,34.8125 L16.65625,34.8125 L19.21875,37.375 L21.78125,34.8125 L35.875,34.8125 C36.5957067,34.8391928 37.1962867,35.092771 37.6767578,35.5732422 C38.157229,36.0537133 38.4108072,36.6542933 38.4375,37.375 L38.4375,37.375 Z M17.9375,38.65625 L16.65625,37.375 L2.5625,37.375 L2.5625,60.4375 L17.9375,60.4375 L17.9375,38.65625 Z M35.875,37.375 L21.78125,37.375 L20.5,38.65625 L20.5,60.4375 L35.875,60.4375 L35.875,37.375 Z" id="" fill="#DCF1F3" sketch:type="MSShapeGroup"></path>
            <path d="M5.125,8.5 L15.375,8.5 L15.375,11.0625 L5.125,11.0625 L5.125,8.5 Z M5.125,13.625 L15.375,13.625 L15.375,16.1875 L5.125,16.1875 L5.125,13.625 Z M5.125,18.75 L15.375,18.75 L15.375,21.3125 L5.125,21.3125 L5.125,18.75 Z M33.3125,11.0625 L23.0625,11.0625 L23.0625,8.5 L33.3125,8.5 L33.3125,11.0625 Z M33.3125,16.1875 L23.0625,16.1875 L23.0625,13.625 L33.3125,13.625 L33.3125,16.1875 Z M33.3125,21.3125 L23.0625,21.3125 L23.0625,18.75 L33.3125,18.75 L33.3125,21.3125 Z M38.4375,3.375 L38.4375,26.4375 C38.4108072,27.1582067 38.157229,27.7587867 37.6767578,28.2392578 C37.1962867,28.719729 36.5957067,28.9733072 35.875,29 L21.78125,29 L19.21875,31.5625 L16.65625,29 L2.5625,29 C1.84179327,28.9733072 1.24121334,28.719729 0.760742188,28.2392578 C0.280271035,27.7587867 0.0266928418,27.1582067 0,26.4375 L0,3.375 C0.0266928418,2.65429327 0.280271035,2.05371334 0.760742188,1.57324219 C1.24121334,1.09277104 1.84179327,0.839192842 2.5625,0.8125 L16.65625,0.8125 L19.21875,3.375 L21.78125,0.8125 L35.875,0.8125 C36.5957067,0.839192842 37.1962867,1.09277104 37.6767578,1.57324219 C38.157229,2.05371334 38.4108072,2.65429327 38.4375,3.375 L38.4375,3.375 Z M17.9375,4.65625 L16.65625,3.375 L2.5625,3.375 L2.5625,26.4375 L17.9375,26.4375 L17.9375,4.65625 Z M35.875,3.375 L21.78125,3.375 L20.5,4.65625 L20.5,26.4375 L35.875,26.4375 L35.875,3.375 Z" id="" fill="#FFFFFF" sketch:type="MSShapeGroup"></path>
        </g>
    </g>
</svg>

<svg width="39" height="66" viewBox="0 0 39 66" xmlns="http://www.w3.org/2000/svg"><title>Untitled 2</title><g fill="none" fill-rule="evenodd"><path d="M5.125 42.5h10.25v2.563H5.125V42.5zm0 5.125h10.25v2.563H5.125v-2.563zm0 5.125h10.25v2.563H5.125V52.75zm28.188-7.688h-10.25V42.5h10.25v2.563zm0 5.126h-10.25v-2.563h10.25v2.563zm0 5.124h-10.25V52.75h10.25v2.563zm5.124-17.937v23.063c-.026.72-.28 1.32-.76 1.8-.48.482-1.08.735-1.802.762H21.78l-2.56 2.563L16.655 63H2.563c-.72-.027-1.322-.28-1.802-.76S.028 61.157 0 60.436V37.376c.027-.72.28-1.32.76-1.802.48-.48 1.082-.734 1.802-.76h14.094l2.563 2.562 2.56-2.563h14.095c.72.027 1.32.28 1.802.76.48.482.734 1.082.76 1.803zm-20.5 1.28l-1.28-1.28H2.56v23.063h15.376V38.656zm17.938-1.28H21.78l-1.28 1.28v21.782h15.375V37.376z" fill="#DCF1F3"/><path d="M5.125 8.5h10.25v2.563H5.125V8.5zm0 5.125h10.25v2.563H5.125v-2.563zm0 5.125h10.25v2.563H5.125V18.75zm28.188-7.688h-10.25V8.5h10.25v2.563zm0 5.126h-10.25v-2.563h10.25v2.563zm0 5.125h-10.25V18.75h10.25v2.563zm5.124-17.938v23.063c-.026.72-.28 1.32-.76 1.8-.48.482-1.08.735-1.802.762H21.78l-2.56 2.563L16.655 29H2.563c-.72-.027-1.322-.28-1.802-.76S.028 27.157 0 26.437V3.375c.027-.72.28-1.32.76-1.802.48-.48 1.082-.734 1.802-.76h14.094l2.563 2.562L21.78.812h14.095c.72.027 1.32.28 1.802.76.48.482.734 1.082.76 1.803zm-20.5 1.28l-1.28-1.28H2.56v23.063h15.376V4.655zm17.938-1.28H21.78l-1.28 1.28v21.782h15.375V3.375z" fill="#FFF"/></g></svg>
